X:1
T:Life and Light
T:Life and Light
T:Edward S. Fogg
T:T. W. Barker, 1893
T:Public Domain Courtesy of the Cyber Hymnal™
C:Edward S. Fogg
Z:Public Domain
Z:Courtesy of the Cyber Hymnal™
%%score ( 1 2 ) ( 3 4 )
L:1/8
Q:1/4=110
M:4/4
K:Db
V:1 treble 
V:2 treble 
V:3 bass 
V:4 bass 
V:1
 ([DF][EG]) | [FA]2 [FA]2 [GB]>[FA] [EG]>[DF] | [CG]6 ([CE][DF]) | [EG]2 [GB]2 [FA]2 [EG]2 | %4
w: 1.~My *|soul is joy- ful in the|Lord; His *|light shines all a-|
w: 2.~His *|blood has cleansed me from all|sin; I’m *|ev- ery whit made|
w: 3.~My *|life is hid with Christ in|God; My *|bread is in His|
w: 4.~I *|care not for this world be-|low; It *|has no charms I|
 [DF]6 ([DF][EG]) | [FA]3 [FA] [Fd]3 [Fd] | [Ge]2 [Gd]2 [Ac]2 [GB]2 | [FA]3 [EG] [DF]2 [CE]2 | %8
w: round; For *|Je- sus is my|life, my way; His|love in me a-|
w: whole; And *|life and light shine|now with- in, And|glo- ry fills my|
w: Word; My *|meat and drink His|right- eous- ness, In|Him I live and|
w: love; I *|live by faith and|faith a- lone; I|seek a home a-|
 D6 ||"^Refrain" [DF][EG] | [FA]4 [Fd]4 | [Ge]>[Gd] [Gc]>[Gd] [Ac]2 [GB]2 | %12
w: bounds.||||
w: soul.|I am|walk- ing,|walk- ing in the light, The|
w: move.||||
w: bove.||||
 [FA]3 [GB] [FA]2 [EG]2 | [DF]6 [DF][EG] | [FA]4 [Fd]4 | [Ge]>[Gd] [Gc]>[Gd] [Ac]2 [GB]2 | %16
w: ||||
w: truth, the light, the|way; I am|walk- ing,|walk- ing in the light, The|
w: ||||
w: ||||
 (3[FA][FA][FA] [FA]>[FA] [Gc]2 [Ge]2 x | [Fd]6 |] %18
w: ||
w: beau- ti- ful light of God to-|day.|
w: ||
w: ||
V:2
 x2 | x8 | x8 | x8 | x8 | x8 | x8 | x8 | D6 || x2 | x8 | x8 | x8 | x8 | x8 | x8 | x9 | x6 |] %18
V:3
 [D,A,]2 | [D,A,]2 [D,A,]2 [D,D]>[D,D] [C,A,]>[D,A,] | ([A,,A,]2 [A,,A,]2 [A,,A,]2) [A,,A,]2 | %3
w: ~|~ ~ ~ ~ ~ ~|~ * * ~|
 [A,,A,]2 [A,,A,]2 [B,,A,]2 [C,A,]2 | ([D,A,]2 [D,A,]2 [D,A,]2) [D,A,]2 | %5
w: ~ ~ ~ ~|~ * * ~|
 [D,D]3 [D,D] [D,A,]3 [D,A,] | [G,,B,]2 [G,,B,]2 [G,,C]2 [G,,D]2 | %7
w: ~ ~ ~ ~|~ ~ ~ ~|
 [A,,D]3 [A,,A,] [A,,A,]2 [A,,G,]2 | [D,F,]6 || [D,A,][D,A,] | [D,D]2 [D,D]2 [D,A,]2 [D,A,]2 | %11
w: ~ ~ ~ ~|~|~ ~|walk- ing, walk- ing,|
 [G,B,]>[G,B,] [G,=A,]>[G,B,] [G,D]2 [G,D]2 | A,3 A, [A,,A,]2 [A,,A,]2 | %13
w: ~ ~ ~ ~ ~ ~|~ ~ ~ ~|
 [D,A,]2 [D,A,]2 [D,A,]2 [D,A,][D,A,] | [D,D]2 [D,D]2 [D,A,]2 [D,A,]2 | %15
w: ~ the way; ~ ~|walk- ing, walk- ing|
 [G,B,]>[G,B,] [G,=A,]>[G,B,] [G,D]2 [G,D]2 | A,A,A,A,>A, [A,,A,]2 [A,,A,]2 | [D,A,]6 |] %18
w: |||
V:4
 x2 | x8 | x8 | x8 | x8 | x8 | x8 | x8 | x6 || x2 | x8 | x8 | A,3 A, x4 | x8 | x8 | x8 | %16
 (3A,A,A, A,>A, x5 | x6 |] %18

